X: 30724
T: Orkney Spring Nights
R: waltz
M: 3/4
K: Gminor
B4 B2|G2 c2 B2|G6|AB c2 c2|d4 Hg2|
gf dc (3Bde|b3 a Hd2|d3 d c2|d6|
G3 G ec|BG BG F2|F2 G4||

